X:1
T:Title
%%score ( 1 2 ) { 3 | 4 }
L:1/8
Q:1/4=108
M:4/4
K:F
V:1 treble nm="Grand Piano, Soprano"
V:2 treble 
V:3 bass nm="Choir Pad, Mérida. Robert Lowry, 1875"
V:4 bass 
V:1
 [CF]2 [FA]>[FA] [Fc]2 [Fc]2 | [Fc]2 dc [FA]4 | [CF]2 [CF]>[CF] [FA]2 [FA]2 | [EG]2 [EA]2 F4 | %4
w: By~Robert~Lowry,~1875 * * * *||||
 [CF]2 [FA]>[FA] [Fc]2 [Fc]2 | [Fd]2 cA [Ec]4 | [Ec]2 [EG]>[Ec] [Ge]2 [Gc]2 | [Gc]2 [F=B]2 [Ec]4 | %8
w: ||||
 [GB]2 [GB]>[FA] [EG]2 [FA]2 | [GB]2 [Ec]2 [FA]4 | [GB]2 [GB]>[FA] [EG]2 [FA]2 | %11
w: |||
 [GB]2 [Ec]2 [FA]4 | [Ac]2 [Ac]>[GB] [FA]4 | [GB]2 [GB]>[FA] [EG]4 | [FA]2 [FA]>[FA] [FB]2 [DG]2 | %15
w: ||||
 [CF]2 [EG]2 F4- | F4 z4 |] %17
w: ||
V:2
 x8 | z2 F2 z4 | x8 | x8 | x8 | z2 F2 z4 | x8 | x8 | x8 | x8 | x8 | x8 | x8 | x8 | x8 | x8 | x8 |] %17
V:3
 A,2 C>C A,2 A,2 | A,2 B,A, C4 | A,2 A,>A,[K:treble] C2 C2 | B,2 C2 A,4 | A,2 C>C[K:bass] A,2 A,2 | %5
 B,2 A,C[K:treble] C4 | G,2 C>C C2 C2 | E2 D2 C4 | C2 C>C C2 C2 | C2 C2 C4 | C2 C>C C2 C2 | %11
 C2 C2 C4 | F2 F>C C4 | C2 C>C C4 | C2 _E>E D2[K:bass] B,2 | A,2 B,2 A,4- | A,4 z4 |] %17
V:4
 F,2 F,>F, F,2 F,2 | F,2 F,2 F,4 | F,2 F,>F, F,2 F,2 | C,2 C,2 F,4 | F,2 F,>F, F,2 F,2 | %5
 F,2 F,2 C,4 | C,2 C,>C, C,2 E,2 | G,2 G,2 C,4 | C,2 C,>C, C,2 C,2 | C,2 C,2 F,4 | %10
 C,2 C,>C, C,2 C,2 | C,2 C,2 F,4 | F,2 F,>F, F,4 | C,2 C,>C, C,4 | F,2 F,>F, B,,2 B,,2 | %15
 C,2 C,2 F,4- | F,4 z4 |] %17

